X:19
T:Please to See the King
C:Traditional Welsh
C:arr. Jerome Epstein
M:3/4
L:1/4
V:1 clef=treble name="Soprano"
V:2 clef=treble name="Alto and Tenor"
V:3 clef=bass name="Bass"
%%staves [(1 2) | 3]
Q:84
K:Ab
%
[V:1] A/F/   | E  A  B  | A2   A/F/   | E  A/B/    c/A/    |
w: Joy,_ health, love and peace be all here in_ this_
[V:2] A,     | A, F  F  | F2   F/D/   | C  E/E/    E       |
[V:3] A,/F,/ | E, C, E, | A,,2 A,/F,/ | E, C,/B,,/ A,,/C,/ |
%
[V:1] B2  A/B/   | [M:4/4] (c>B) d/c/ B  | [M:3/4] F2  F/E/   | F/G/ A/c/  B/G/ | A2   |]
w: * By your leave_ * * * * * * * * * * * * *
[V:2] E2  E      | [M:4/4] E C   F/E/ D  | [M:3/4] D2  D/E/   | D    E       E  | E2   |]
w: place. By your leave we_ will sing con_ cern ing our King.
[V:3] E,2 C,/B,,/| [M:4/4] A,,2  B,,  C, | [M:3/4] D,2 D,/C,/ | B,,  C,/A,,/ E, | A,,2 |]
w: * By your leave * * * * * * * * * *
%
%%vskip 0.8cm
%
W: 1. Joy, health, love and peace be all here in this place.
W:    By your leave we will sing concerning our King.
W:
W: 2. Our King is well dressed, in silks of the best,
W:    In ribbons so rare, no king can compare.
W:
W: 3. We have travelled many miles, over hedges and stiles,
W:    In search of our King, unto you we bring.
W:
W: 4. We have powder and shot, to conquer the lot.
W:    We have cannon and ball, to conquer them all.
W:
W: 5. Old Christmas is past, Twelfth Night is the Last.
W:    And we bid you adieu, great joy to the new.

%%newpage

%%newpage

